public/logos/logo.svg

<?xml version="1.0" encoding="utf-8"?>
<!-- Generator: Adobe Illustrator 18.0.0, SVG Export Plug-In . SVG Version: 6.00 Build 0)  -->
<!DOCTYPE svg PUBLIC "-//W3C//DTD SVG 1.1//EN" "http://www.w3.org/Graphics/SVG/1.1/DTD/svg11.dtd">
<svg version="1.1" id="Layer_1" xmlns="http://www.w3.org/2000/svg" xmlns:xlink="http://www.w3.org/1999/xlink" x="0px" y="0px"
	 viewBox="0 0 850 850" enable-background="new 0 0 850 850" xml:space="preserve">
<rect fill="#FFFFFF" width="850" height="850"/>
<path fill="#E02E2D" d="M0,0v850h850V0H0z M661.3,674.5H486.5l-142.4-166v166H203.2V175.5h141.1v163.9l131.1-163.9h168.8v8.5
	l-202.4,236l219.5,245.8L661.3,674.5L661.3,674.5z"/>
</svg>

<?xml version="1.0" encoding="UTF-8" standalone="no"?>
<!DOCTYPE svg PUBLIC "-//W3C//DTD SVG 1.1//EN" "http://www.w3.org/Graphics/SVG/1.1/DTD/svg11.dtd">
<svg width="100%" height="100%" viewBox="0 0 850 850" version="1.1" xmlns="http://www.w3.org/2000/svg" xmlns:xlink="http://www.w3.org/1999/xlink" xml:space="preserve" xmlns:serif="http://www.serif.com/" style="fill-rule:evenodd;clip-rule:evenodd;stroke-linejoin:round;stroke-miterlimit:2;">
    <g id="logo" transform="matrix(1,0,0,0.594339,0,0)">
        <rect x="0" y="0" width="850" height="1430.16" style="fill:none;"/>
        <g transform="matrix(0.876215,0,0,1.43879,52.6086,103.593)">
            <rect x="0" y="0" width="850" height="850" style="fill:white;"/>
        </g>
        <g transform="matrix(1,0,0,1.68254,0,0)">
            <path d="M0,0L0,850L850,850L850,0L0,0ZM661.3,674.5L486.5,674.5L344.1,508.5L344.1,674.5L203.2,674.5L203.2,175.5L344.3,175.5L344.3,339.4L475.4,175.5L644.2,175.5L644.2,184L441.8,420L661.3,665.8L661.3,674.5Z" style="fill:rgb(225,46,46);fill-rule:nonzero;"/>
        </g>
    </g>
</svg>
